apps/scalable/8-ball-pool.svg

<svg xmlns="http://www.w3.org/2000/svg" style="isolation:isolate" width="256" height="256"><defs><filter id="a" width="270.648" height="254.338" x="-7.32" y="2.95" filterUnits="userSpaceOnUse"><feGaussianBlur xmlns="http://www.w3.org/2000/svg" in="SourceGraphic" stdDeviation="4.294"/><feOffset xmlns="http://www.w3.org/2000/svg" dy="4" result="pf_100_offsetBlur"/><feFlood xmlns="http://www.w3.org/2000/svg" flood-opacity=".4"/><feComposite xmlns="http://www.w3.org/2000/svg" in2="pf_100_offsetBlur" operator="in" result="pf_100_dropShadow"/><feBlend xmlns="http://www.w3.org/2000/svg" in="SourceGraphic" in2="pf_100_dropShadow"/></filter></defs><g filter="url(#a)"><linearGradient id="b" x1=".567" x2=".567" y1="1.071" y2="-.071" gradientTransform="matrix(244.648 0 0 228.338 5.676 11.947)" gradientUnits="userSpaceOnUse"><stop offset="0%" stop-color="#a0a0a0"/><stop offset="100%" stop-color="#dfdfdf"/></linearGradient><path fill="url(#b)" d="M165.685 11.947c74.055 0 84.639 10.557 84.639 84.544v59.251c0 73.986-10.584 84.543-84.639 84.543h-75.37c-74.055 0-84.639-10.557-84.639-84.543V96.491c0-73.987 10.584-84.544 84.639-84.544h75.37z"/></g><g opacity=".4"><linearGradient id="c" x1=".517" x2=".517" y2="1"><stop offset="0%" stop-color="#fff"/><stop offset="12.5%" stop-opacity=".098" stop-color="#fff"/><stop offset="92.5%" stop-opacity=".098"/><stop offset="100%" stop-opacity=".498"/></linearGradient><path fill="none" stroke="url(#c)" stroke-linecap="round" stroke-linejoin="round" stroke-width="4.077" d="M165.685 11.947c74.055 0 84.639 10.557 84.639 84.544v59.251c0 73.986-10.584 84.543-84.639 84.543h-75.37c-74.055 0-84.639-10.557-84.639-84.543V96.491c0-73.987 10.584-84.544 84.639-84.544h75.37z" vector-effect="non-scaling-stroke"/></g><g filter="url(#KnjRXA6CLCqJgNXZJkUXbGoBVDkegfbc)"><radialGradient id="d" cx=".5" cy=".5" r=".5" fx=".502" fy=".497" gradientTransform="matrix(193.333 129.333 -86 199.333 51 -86.333)" gradientUnits="userSpaceOnUse"><stop offset="2.174%" stop-color="#646363"/><stop offset="100%" stop-color="#333"/><stop offset="100%" stop-color="#020202"/><stop offset="100%" stop-color="#9b9b9b"/></radialGradient><path fill="url(#d)" d="M203.01 126.01C202.99 167.441 169.411 201 128 201c-41.411 0-74.99-33.559-75.01-74.99C52.97 84.579 86.569 51 128 51c41.431 0 75.01 33.599 75.01 75.01z"/><path fill="#F9F9F9" d="M168.005 126.01c0 22.093-17.912 40.005-40.005 40.005-22.093 0-40.005-17.912-40.005-40.005 0-22.093 17.912-40.005 40.005-40.005 22.093 0 40.005 17.912 40.005 40.005z"/><path fill="#333" fill-rule="evenodd" d="M127.925 153q-8.502 0-13.686-4.55-5.184-4.549-5.184-11.859 0-4.475 2.499-7.906 2.498-3.431 6.824-5.221-3.132-1.492-5.146-4.289-2.014-2.797-2.014-6.451 0-6.042 4.587-9.883Q120.392 99 127.925 99q7.608 0 12.232 3.841 4.625 3.841 4.625 9.883 0 3.654-2.051 6.451-2.051 2.797-5.259 4.215 4.326 1.79 6.9 5.295 2.573 3.506 2.573 7.906 0 7.31-5.221 11.859-5.221 4.55-13.799 4.55zm-5.743-35.018q2.163 1.827 5.743 1.827 3.581 0 5.818-1.827 2.238-1.827 2.238-4.587 0-2.909-2.238-4.699-2.237-1.79-5.818-1.79-3.58 0-5.743 1.79-2.163 1.79-2.163 4.699 0 2.76 2.163 4.587zm-1.454 24.613q2.797 2.424 7.197 2.424 4.401 0 7.235-2.424 2.834-2.424 2.834-6.302 0-3.729-2.834-6.191-2.834-2.461-7.235-2.461-4.4 0-7.197 2.461-2.797 2.462-2.797 6.191 0 3.878 2.797 6.302z"/></g><defs><filter id="KnjRXA6CLCqJgNXZJkUXbGoBVDkegfbc" width="210.02" height="210" x="22.99" y="25" filterUnits="userSpaceOnUse"><feGaussianBlur xmlns="http://www.w3.org/2000/svg" in="SourceGraphic" stdDeviation="4.294"/><feOffset xmlns="http://www.w3.org/2000/svg" dy="4" result="pf_100_offsetBlur"/><feFlood xmlns="http://www.w3.org/2000/svg" flood-opacity=".4"/><feComposite xmlns="http://www.w3.org/2000/svg" in2="pf_100_offsetBlur" operator="in" result="pf_100_dropShadow"/><feBlend xmlns="http://www.w3.org/2000/svg" in="SourceGraphic" in2="pf_100_dropShadow"/></filter></defs></svg>

<svg xmlns="http://www.w3.org/2000/svg" style="isolation:isolate" width="256" height="256" viewBox="0 0 256 256">
 <defs>
  <filter id="iD9Zzf5UWUneT9U1rN863ZBntjlSoYCa" width="270.648" height="254.338" x="-7.32" y="2.95" filterUnits="userSpaceOnUse">
   <feGaussianBlur xmlns="http://www.w3.org/2000/svg" in="SourceGraphic" stdDeviation="4.294"/>
   <feOffset xmlns="http://www.w3.org/2000/svg" dx="0" dy="4" result="pf_100_offsetBlur"/>
   <feFlood xmlns="http://www.w3.org/2000/svg" flood-opacity=".4"/>
   <feComposite xmlns="http://www.w3.org/2000/svg" in2="pf_100_offsetBlur" operator="in" result="pf_100_dropShadow"/>
   <feBlend xmlns="http://www.w3.org/2000/svg" in="SourceGraphic" in2="pf_100_dropShadow" mode="normal"/>
  </filter>
 </defs>
 <g filter="url(#iD9Zzf5UWUneT9U1rN863ZBntjlSoYCa)">
  <linearGradient id="_lgradient_12" x1=".567" x2=".567" y1="1.071" y2="-.071" gradientTransform="matrix(244.648,0,0,228.338,5.676,11.947)" gradientUnits="userSpaceOnUse">
   <stop offset="0%" style="stop-color:rgb(160,160,160)"/>
   <stop offset="100%" style="stop-color:rgb(223,223,223)"/>
  </linearGradient>
  <path fill="url(#_lgradient_12)" d="M 165.685 11.947 C 239.74 11.947 250.324 22.504 250.324 96.491 L 250.324 155.742 C 250.324 229.728 239.74 240.285 165.685 240.285 L 90.315 240.285 C 16.26 240.285 5.676 229.728 5.676 155.742 L 5.676 96.491 C 5.676 22.504 16.26 11.947 90.315 11.947 L 165.685 11.947 Z"/>
 </g>
 <g opacity=".4">
  <linearGradient id="_lgradient_13" x1=".517" x2=".517" y1="0" y2="1">
   <stop offset="0%" style="stop-color:rgb(255,255,255)"/>
   <stop offset="12.5%" stop-opacity=".098" style="stop-color:rgb(255,255,255)"/>
   <stop offset="92.5%" stop-opacity=".098" style="stop-color:rgb(0,0,0)"/>
   <stop offset="100%" stop-opacity=".498" style="stop-color:rgb(0,0,0)"/>
  </linearGradient>
  <path fill="none" stroke="url(#_lgradient_13)" stroke-linecap="round" stroke-linejoin="round" stroke-width="4.077" d="M 165.685 11.947 C 239.74 11.947 250.324 22.504 250.324 96.491 L 250.324 155.742 C 250.324 229.728 239.74 240.285 165.685 240.285 L 90.315 240.285 C 16.26 240.285 5.676 229.728 5.676 155.742 L 5.676 96.491 C 5.676 22.504 16.26 11.947 90.315 11.947 L 165.685 11.947 Z" vector-effect="non-scaling-stroke"/>
 </g>
 <g filter="url(#KnjRXA6CLCqJgNXZJkUXbGoBVDkegfbc)">
  <radialGradient id="_rgradient_3" cx=".5" cy=".5" r=".5" fx=".502" fy=".497" gradientTransform="matrix(193.333,129.333,-86,199.333,51,-86.333)" gradientUnits="userSpaceOnUse">
   <stop offset="2.174%" style="stop-color:rgb(100,99,99)"/>
   <stop offset="100%" style="stop-color:rgb(51,51,51)"/>
   <stop offset="100%" style="stop-color:rgb(2,2,2)"/>
   <stop offset="100%" style="stop-color:rgb(155,155,155)"/>
  </radialGradient>
  <path fill="url(#_rgradient_3)" d="M 203.01 126.01 C 202.99 167.441 169.411 201 128 201 C 86.589 201 53.01 167.441 52.99 126.01 C 52.97 84.579 86.569 51 128 51 C 169.431 51 203.01 84.599 203.01 126.01 Z"/>
  <path fill="#F9F9F9" d="M 168.005 126.01 C 168.005 148.103 150.093 166.015 128 166.015 C 105.907 166.015 87.995 148.103 87.995 126.01 C 87.995 103.917 105.907 86.005 128 86.005 C 150.093 86.005 168.005 103.917 168.005 126.01 Z"/>
  <path fill="#333333" fill-rule="evenodd" d="M 127.925 153 L 127.925 153 L 127.925 153 Q 119.423 153 114.239 148.45 L 114.239 148.45 L 114.239 148.45 Q 109.055 143.901 109.055 136.591 L 109.055 136.591 L 109.055 136.591 Q 109.055 132.116 111.554 128.685 L 111.554 128.685 L 111.554 128.685 Q 114.052 125.254 118.378 123.464 L 118.378 123.464 L 118.378 123.464 Q 115.246 121.972 113.232 119.175 L 113.232 119.175 L 113.232 119.175 Q 111.218 116.378 111.218 112.724 L 111.218 112.724 L 111.218 112.724 Q 111.218 106.682 115.805 102.841 L 115.805 102.841 L 115.805 102.841 Q 120.392 99 127.925 99 L 127.925 99 L 127.925 99 Q 135.533 99 140.157 102.841 L 140.157 102.841 L 140.157 102.841 Q 144.782 106.682 144.782 112.724 L 144.782 112.724 L 144.782 112.724 Q 144.782 116.378 142.731 119.175 L 142.731 119.175 L 142.731 119.175 Q 140.68 121.972 137.472 123.39 L 137.472 123.39 L 137.472 123.39 Q 141.798 125.18 144.372 128.685 L 144.372 128.685 L 144.372 128.685 Q 146.945 132.191 146.945 136.591 L 146.945 136.591 L 146.945 136.591 Q 146.945 143.901 141.724 148.45 L 141.724 148.45 L 141.724 148.45 Q 136.503 153 127.925 153 Z M 122.182 117.982 L 122.182 117.982 L 122.182 117.982 Q 124.345 119.809 127.925 119.809 L 127.925 119.809 L 127.925 119.809 Q 131.506 119.809 133.743 117.982 L 133.743 117.982 L 133.743 117.982 Q 135.981 116.155 135.981 113.395 L 135.981 113.395 L 135.981 113.395 Q 135.981 110.486 133.743 108.696 L 133.743 108.696 L 133.743 108.696 Q 131.506 106.906 127.925 106.906 L 127.925 106.906 L 127.925 106.906 Q 124.345 106.906 122.182 108.696 L 122.182 108.696 L 122.182 108.696 Q 120.019 110.486 120.019 113.395 L 120.019 113.395 L 120.019 113.395 Q 120.019 116.155 122.182 117.982 Z M 120.728 142.595 L 120.728 142.595 L 120.728 142.595 Q 123.525 145.019 127.925 145.019 L 127.925 145.019 L 127.925 145.019 Q 132.326 145.019 135.16 142.595 L 135.16 142.595 L 135.16 142.595 Q 137.994 140.171 137.994 136.293 L 137.994 136.293 L 137.994 136.293 Q 137.994 132.564 135.16 130.102 L 135.16 130.102 L 135.16 130.102 Q 132.326 127.641 127.925 127.641 L 127.925 127.641 L 127.925 127.641 Q 123.525 127.641 120.728 130.102 L 120.728 130.102 L 120.728 130.102 Q 117.931 132.564 117.931 136.293 L 117.931 136.293 L 117.931 136.293 Q 117.931 140.171 120.728 142.595 Z"/>
 </g>
 <defs>
  <filter id="KnjRXA6CLCqJgNXZJkUXbGoBVDkegfbc" width="210.02" height="210" x="22.99" y="25" filterUnits="userSpaceOnUse">
   <feGaussianBlur xmlns="http://www.w3.org/2000/svg" in="SourceGraphic" stdDeviation="4.294"/>
   <feOffset xmlns="http://www.w3.org/2000/svg" dx="0" dy="4" result="pf_100_offsetBlur"/>
   <feFlood xmlns="http://www.w3.org/2000/svg" flood-opacity=".4"/>
   <feComposite xmlns="http://www.w3.org/2000/svg" in2="pf_100_offsetBlur" operator="in" result="pf_100_dropShadow"/>
   <feBlend xmlns="http://www.w3.org/2000/svg" in="SourceGraphic" in2="pf_100_dropShadow" mode="normal"/>
  </filter>
 </defs>
</svg>
